X: 1
T: Cercle circassien : Termen A
O: Trad. Bretagne
R: jig
S: handout at NEFFA 2016 from Mark Vidor p.14 #1
Z: 2016 John Chambers <jc:trillian.mit.edu>
M: 6/8
L: 1/8
K: Am
|:\
"Am"E2A A2G | E2E "G"DB,D |\
"Am"E2A A2B | cAc "G"BGB |\
"Am"E2A A2G | E2E "G"DB,D |\
"Am"EAB cdc | "G"BcB "Am"A3 :|
|:\
"Am"e2e efe | "G"dcB "F"A2B |\
cAA ABc | "G"dBB Bcd |\
"Am"e2e efe | "G"dcB "F"A2B |\
cdc "G"BcB | "Am"A2A A3 :|
